; generated by PrusaSlicer 2.7.4+win64 on 2024-07-29 at 13:53:07 UTC


;
;

;
;

;
;

;
;

;
;
; 

; external perimeters extrusion width = 0.45mm
; perimeters extrusion width = 0.45mm
; infill extrusion width = 0.45mm
; solid infill extrusion width = 0.45mm
; top infill extrusion width = 0.40mm
; first layer extrusion width = 0.50mm

M73 P0 R45
M73 Q0 S45
M201 X5000 Y5000 Z200 E2500 ; sets maximum accelerations, mm/sec^2
M203 X400 Y400 Z12 E100 ; sets maximum feedrates, mm / sec
M204 P3000 R1200 T3000 ; sets acceleration (P, T) and retract acceleration (R), mm/sec^2
M205 X8.00 Y8.00 Z2.00 E10.00 ; sets the jerk limits, mm/sec
M205 S0 T0 ; sets the minimum extruding and travel feed rate, mm/sec

M486 S0
M486 AShape-Box
M486 S-1

;TYPE:Custom
M17 ; enable steppers
M862.3 P "XL" ; printer model check
M115 U6.0.3+14902
G90 ; use absolute coordinates
M83 ; extruder relative mode
; set print area
M555 X103.897 Y57.0931 W36 H36
; inform about nozzle diameter
M862.1 T0 P0.4





; turn off unused heaters

 M104 T1 S0 
 M104 T2 S0 
 M104 T3 S0 
 M104 T4 S0 

M217 Z2 ; set toolchange z hop to 2mm, or zhop variable from slicer if higher
; set bed and extruder temp for MBL
M140 S60 ; set bed temp
G0 Z5 ; add Z clearance
M109 T0 S170 ; wait for temp

; Home XY
G28 XY
; try picking tools used in print
G1 F24000





; select tool that will be used to home & MBL
T0 S1 L0 D0
; home Z with MBL tool
M84 E ; turn off E motor
G28 Z
G0 Z5 ; add Z clearance
M190 S60 ; wait for bed temp
G29 G ; absorb heat
; move to the nozzle cleanup area
G1 X135.897 Y50.0931 Z5 F24000
M302 S160 ; lower cold extrusion limit to 160C
G1 E-2 F2400 ; retraction for nozzle cleanup
; nozzle cleanup
M84 E ; turn off E motor
G29 P9 X103.897 Y50.0931 W32 H7
G0 Z5 F480 ; move away in Z
M107 ; turn off the fan
; MBL
M84 E ; turn off E motor
G29 P1 ; invalidate mbl & probe print area
G29 P1 X30 Y0 W50 H20 C ; probe near purge place
G29 P3.2 ; interpolate mbl probes
G29 P3.13 ; extrapolate mbl outside probe area
G29 A ; activate mbl
G1 Z10 F720 ; move away in Z
G1 F24000
P0 S1 L1 D0; park the tool
; set extruder temp
M104 T0 S215









;
; purge initial tool
;
G1 F24000
P0 S1 L2 D0; park the tool
M109 T0 S215
T0 S1 L0 D0; pick the tool
G92 E0 ; reset extruder position

G0 X30 Y-7 Z10 F24000 ; move close to the sheet's edge
G0 E30 X40 Z0.2 F170 ; purge while moving towards the sheet
G0 X70 E9 F800 ; continue purging and wipe the nozzle
G0 X73 Z0.05 F8000 ; wipe, move close to the bed
G0 X76 Z0.2 F8000 ; wipe, move quickly away from the bed
G1 E-1.2 F2400 ; retract

G92 E0 ; reset extruder position
G21 ; set units to millimeters
G90 ; use absolute coordinates
M83 ; use relative distances for extrusion
M900 K0.05 ; Filament gcode



M142 S36 ; set heatbreak target temp
M107
;LAYER_CHANGE
;Z:0.2
;HEIGHT:0.2
G1 Z.8 F600
M486 S0
G1 X138.99 Y92.186 F24000
G1 Z.2 F600
G1 E1.2 F1500
M204 P600
;TYPE:Perimeter
;WIDTH:0.499999
G1 X104.804 Y92.186 E1.29928
G1 X104.804 Y58 E1.29928
G1 X138.99 Y58 E1.29928
G1 X138.99 Y75.093 E.64964
G1 X138.99 Y92.126 E.64736
M204 P1250
G1 X138.99 Y92.126 F24000
M73 P0 R44
G1 X139.447 Y92.643
M204 P600
;TYPE:External perimeter
G1 F1500
G1 X104.347 Y92.643 E1.33402
G1 X104.347 Y57.543 E1.33402
G1 X139.447 Y57.543 E1.33402
G1 X139.447 Y75.093 E.66701
G1 X139.447 Y92.583 E.66473
M204 P1250
G1 E-.64 F2100
;WIPE_START
G1 F19200
G1 X139.447 Y92.643 E-.00623
G1 X137.967 Y92.643 E-.15377
;WIPE_END
G1 X138.784 Y59.136 Z.785 F24000
G1 Z.2 F600
G1 E.8 F1500
M204 P600
;TYPE:Solid infill
;WIDTH:0.502813
G1 X138.06 Y58.412 E.03915
G1 X137.409 Y58.412 E.02489
G1 X138.578 Y59.581 E.06322
G1 X138.578 Y60.231 E.02486
G1 X136.759 Y58.412 E.09837
G1 X136.108 Y58.412 E.02489
G1 X138.578 Y60.881 E.13355
G1 X138.578 Y61.532 E.02489
G1 X135.458 Y58.412 E.16873
G1 X134.808 Y58.412 E.02486
G1 X138.578 Y62.182 E.20388
G1 X138.578 Y62.832 E.02486
G1 X134.157 Y58.412 E.23906
G1 X133.507 Y58.412 E.02486
G1 X138.578 Y63.483 E.27424
G1 X138.578 Y64.133 E.02486
G1 X132.856 Y58.412 E.30942
G1 X132.206 Y58.412 E.02486
G1 X138.578 Y64.784 E.3446
G1 X138.578 Y65.434 E.02486
G1 X131.556 Y58.412 E.37975
G1 X130.905 Y58.412 E.02489
G1 X138.578 Y66.084 E.41493
G1 X138.578 Y66.735 E.02489
G1 X130.255 Y58.412 E.45011
G1 X129.605 Y58.412 E.02486
G1 X138.578 Y67.385 E.48526
G1 X138.578 Y68.036 E.02489
M73 Q1 S45
G1 X128.954 Y58.412 E.52046
G1 X128.304 Y58.412 E.02486
G1 X138.578 Y68.686 E.55562
M73 P1 R44
G1 X138.578 Y69.336 E.02486
G1 X127.653 Y58.412 E.5908
G1 X127.003 Y58.412 E.02486
G1 X138.578 Y69.987 E.62597
G1 X138.578 Y70.637 E.02486
G1 X126.353 Y58.412 E.66113
G1 X125.702 Y58.412 E.02489
G1 X138.578 Y71.287 E.69631
G1 X138.578 Y71.938 E.02489
G1 X125.052 Y58.412 E.73148
G1 X124.401 Y58.412 E.02489
G1 X138.578 Y72.588 E.76666
G1 X138.578 Y73.239 E.02489
G1 X123.751 Y58.412 E.80184
G1 X123.101 Y58.412 E.02486
G1 X138.578 Y73.889 E.83699
G1 X138.578 Y74.539 E.02486
G1 X122.45 Y58.412 E.87217
G1 X121.8 Y58.412 E.02486
G1 X138.578 Y75.19 E.90735
G1 X138.578 Y75.84 E.02486
G1 X121.15 Y58.412 E.9425
G1 X120.499 Y58.412 E.02489
G1 X138.578 Y76.491 E.97771
G1 X138.578 Y77.141 E.02486
G1 X119.849 Y58.412 E1.01286
G1 X119.198 Y58.412 E.02489
G1 X138.578 Y77.791 E1.04804
G1 X138.578 Y78.442 E.02489
G1 X118.548 Y58.412 E1.08322
G1 X117.898 Y58.412 E.02486
G1 X138.578 Y79.092 E1.11837
G1 X138.578 Y79.743 E.02489
G1 X117.247 Y58.412 E1.15358
G1 X116.597 Y58.412 E.02486
G1 X138.578 Y80.393 E1.18873
G1 X138.578 Y81.043 E.02486
G1 X115.946 Y58.412 E1.22391
G1 X115.296 Y58.412 E.02486
G1 X138.578 Y81.694 E1.25909
G1 X138.578 Y82.344 E.02486
G1 X114.646 Y58.412 E1.29424
G1 X113.995 Y58.412 E.02489
G1 X138.578 Y82.994 E1.32942
G1 X138.578 Y83.645 E.02489
G1 X113.345 Y58.412 E1.3646
G1 X112.694 Y58.412 E.02489
M73 Q1 S44
G1 X138.578 Y84.295 E1.39978
G1 X138.578 Y84.946 E.02489
M73 Q2 S44
G1 X112.044 Y58.412 E1.43496
G1 X111.394 Y58.412 E.02486
M73 P2 R44
G1 X138.578 Y85.596 E1.47011
G1 X138.578 Y86.246 E.02486
G1 X110.743 Y58.412 E1.50529
G1 X110.093 Y58.412 E.02486
G1 X138.578 Y86.897 E1.54047
G1 X138.578 Y87.547 E.02486
G1 X109.443 Y58.412 E1.57562
G1 X108.792 Y58.412 E.02489
G1 X138.578 Y88.198 E1.61082
G1 X138.578 Y88.848 E.02486
G1 X108.142 Y58.412 E1.64598
G1 X107.491 Y58.412 E.02489
G1 X138.578 Y89.498 E1.68115
G1 X138.578 Y90.149 E.02489
G1 X106.841 Y58.412 E1.71633
G1 X106.191 Y58.412 E.02486
G1 X138.578 Y90.799 E1.75149
G1 X138.578 Y91.449 E.02486
G1 X105.54 Y58.412 E1.78666
G1 X105.215 Y58.412 E.01243
G1 X105.215 Y58.737 E.01243
G1 X138.253 Y91.775 E1.78669
G1 X137.603 Y91.775 E.02486
G1 X105.215 Y59.387 E1.75154
G1 X105.215 Y60.038 E.02489
M73 P2 R43
G1 X136.952 Y91.775 E1.71633
G1 X136.302 Y91.775 E.02486
G1 X105.215 Y60.688 E1.68118
G1 X105.215 Y61.338 E.02486
G1 X135.651 Y91.775 E1.646
G1 X135.001 Y91.775 E.02486
M73 P3 R43
M73 Q3 S44
G1 X105.215 Y61.989 E1.61082
G1 X105.215 Y62.639 E.02486
G1 X134.351 Y91.775 E1.57567
G1 X133.7 Y91.775 E.02489
G1 X105.215 Y63.289 E1.54049
G1 X105.215 Y63.94 E.02489
G1 X133.05 Y91.775 E1.50531
G1 X132.399 Y91.775 E.02489
G1 X105.215 Y64.59 E1.47013
G1 X105.215 Y65.241 E.02489
G1 X131.749 Y91.775 E1.43496
G1 X131.099 Y91.775 E.02486
G1 X105.215 Y65.891 E1.3998
G1 X105.215 Y66.541 E.02486
G1 X130.448 Y91.775 E1.36462
G1 X129.798 Y91.775 E.02486
G1 X105.215 Y67.192 E1.32945
G1 X105.215 Y67.842 E.02486
G1 X129.148 Y91.775 E1.29429
G1 X128.497 Y91.775 E.02489
G1 X105.215 Y68.493 E1.25909
G1 X105.215 Y69.143 E.02486
G1 X127.847 Y91.775 E1.22394
G1 X127.196 Y91.775 E.02489
G1 X105.215 Y69.793 E1.18876
G1 X105.215 Y70.444 E.02489
G1 X126.546 Y91.775 E1.15358
G1 X125.896 Y91.775 E.02486
G1 X105.215 Y71.094 E1.11843
G1 X105.215 Y71.744 E.02486
G1 X125.245 Y91.775 E1.08325
G1 X124.595 Y91.775 E.02486
G1 X105.215 Y72.395 E1.04807
G1 X105.215 Y73.045 E.02486
G1 X123.944 Y91.775 E1.01289
G1 X123.294 Y91.775 E.02486
G1 X105.215 Y73.696 E.97771
G1 X105.215 Y74.346 E.02486
M73 P4 R43
M73 Q4 S44
G1 X122.644 Y91.775 E.94256
G1 X121.993 Y91.775 E.02489
G1 X105.215 Y74.996 E.90738
G1 X105.215 Y75.647 E.02489
G1 X121.343 Y91.775 E.8722
G1 X120.692 Y91.775 E.02489
M73 Q4 S43
G1 X105.215 Y76.297 E.83702
G1 X105.215 Y76.948 E.02489
G1 X120.042 Y91.775 E.80184
G1 X119.392 Y91.775 E.02486
G1 X105.215 Y77.598 E.76669
G1 X105.215 Y78.248 E.02486
G1 X118.741 Y91.775 E.73151
G1 X118.091 Y91.775 E.02486
G1 X105.215 Y78.899 E.69633
G1 X105.215 Y79.549 E.02486
G1 X117.441 Y91.775 E.66118
G1 X116.79 Y91.775 E.02489
G1 X105.215 Y80.2 E.62597
G1 X105.215 Y80.85 E.02486
G1 X116.14 Y91.775 E.59082
G1 X115.489 Y91.775 E.02489
G1 X105.215 Y81.5 E.55564
G1 X105.215 Y82.151 E.02489
G1 X114.839 Y91.775 E.52046
G1 X114.189 Y91.775 E.02486
G1 X105.215 Y82.801 E.48531
G1 X105.215 Y83.451 E.02486
G1 X113.538 Y91.775 E.45013
G1 X112.888 Y91.775 E.02486
G1 X105.215 Y84.102 E.41495
G1 X105.215 Y84.752 E.02486
G1 X112.237 Y91.775 E.37978
G1 X111.587 Y91.775 E.02486
G1 X105.215 Y85.403 E.3446
G1 X105.215 Y86.053 E.02486
G1 X110.937 Y91.775 E.30945
G1 X110.286 Y91.775 E.02489
G1 X105.215 Y86.703 E.27427
G1 X105.215 Y87.354 E.02489
G1 X109.636 Y91.775 E.23909
G1 X108.986 Y91.775 E.02486
G1 X105.215 Y88.004 E.20394
G1 X105.215 Y88.655 E.02489
G1 X108.335 Y91.775 E.16873
G1 X107.685 Y91.775 E.02486
G1 X105.215 Y89.305 E.13358
G1 X105.215 Y89.955 E.02486
G1 X107.034 Y91.775 E.0984
G1 X106.384 Y91.775 E.02486
G1 X105.215 Y90.606 E.06322
G1 X105.215 Y91.256 E.02486
G1 X105.939 Y91.98 E.03915
M204 P1250
M106 S127.5
;LAYER_CHANGE
;Z:0.4
;HEIGHT:0.2
;BEFORE_LAYER_CHANGE
G92 E0.0
;0.4


G1 E-.64 F2100
;WIPE_START
G1 F19200
G1 X105.215 Y91.256 E-.10639
G1 X105.215 Y90.74 E-.05361
;WIPE_END
G1 X105.215 Y90.74 Z.2 F24000
G1 X139.265 Y92.461 Z.795
;AFTER_LAYER_CHANGE
;0.4
M104 S210 ; set temperature
G1 X139.265 Y92.461
G1 Z.4 F600
G1 E.8 F1500
M204 P1000
;TYPE:Perimeter
;WIDTH:0.449999
G1 F3535.723
G1 X104.529 Y92.461 E1.17577
G1 X104.529 Y57.725 E1.17577
G1 X139.265 Y57.725 E1.17577
G1 F3050.499
G1 X139.265 Y75.093 E.58789
G1 F3900
G1 X139.265 Y92.401 E.58585
M204 P1250
G1 X139.265 Y92.401 F24000
G1 X139.672 Y92.868
M204 P850
;TYPE:External perimeter
G1 F2015.971
G1 X138.997 Y92.868 E.02285
G1 F2258.656
G1 X104.797 Y92.868 E1.15763
G1 F2015.971
G1 X104.122 Y92.868 E.02285
G1 X104.122 Y92.193 E.02285
G1 F2258.79
G1 X104.122 Y57.993 E1.15763
G1 F2015.966
G1 X104.122 Y57.318 E.02285
G1 X104.797 Y57.318 E.02285
G1 F2258.792
G1 X138.997 Y57.318 E1.15763
G1 F2015.971
G1 X139.672 Y57.318 E.02285
G1 X139.672 Y74.418 E.57881
G1 F2221.647
G1 X139.672 Y75.093 E.02285
G1 F2291.604
G1 X139.672 Y75.768 E.02285
G1 F2399.995
G1 X139.672 Y92.193 E.55597
G1 X139.672 Y92.808 E.02082
M204 P1250
G1 E-.64 F2100
;WIPE_START
G1 F19200
G1 X139.672 Y92.868 E-.00623
G1 X138.997 Y92.868 E-.07014
G1 X138.192 Y92.868 E-.08363
;WIPE_END
G1 X114.449 Y68.011 Z1 F24000
G1 X105.005 Y58.125
G1 Z.4 F600
G1 E.8 F1500
M204 P1500
;TYPE:Solid infill
;WIDTH:0.548766
G1 F7200
G2 X104.989 Y58.186 I-.058 J.017 E.01323
M204 P1250
G1 X104.989 Y58.186 F24000
G1 X104.762 Y58.981
M204 P1500
;WIDTH:0.38292
G1 F7200
G1 X104.691 Y58.962 E.00208
G1 X104.71 Y59.033 E.00208
G1 X104.751 Y59.022 E.0012
;WIDTH:0.41646
G1 X104.823 Y58.929 E.00365
;WIDTH:0.449999
G1 X104.895 Y58.836 E.00398
G1 X105.639 Y58.092 E.03561
G1 X105.733 Y58.02 E.00401
;WIDTH:0.41646
G1 X105.826 Y57.948 E.00365
;WIDTH:0.38292
G1 X105.785 Y57.959 E.0012
G1 X105.766 Y57.888 E.00208
G1 X105.837 Y57.907 E.00208
;WIDTH:0.449999
G1 X106.215 Y58.092 E.01425
G1 X104.895 Y59.412 E.06319
G1 X104.895 Y59.987 E.01946
G1 X106.791 Y58.092 E.09074
G1 X107.366 Y58.092 E.01946
G1 X104.895 Y60.563 E.11829
G1 X104.895 Y61.139 E.0195
G1 X107.942 Y58.092 E.14586
G1 X108.518 Y58.092 E.0195
G1 X104.895 Y61.714 E.17341
G1 X104.895 Y62.29 E.0195
G1 X109.094 Y58.092 E.20098
G1 X109.669 Y58.092 E.01946
G1 X104.895 Y62.866 E.22853
G1 X104.895 Y63.441 E.01946
G1 X110.245 Y58.092 E.25608
G1 X110.821 Y58.092 E.0195
G1 X104.895 Y64.017 E.28365
G1 X104.895 Y64.593 E.0195
G1 X111.396 Y58.092 E.3112
G1 X111.972 Y58.092 E.0195
G1 X104.895 Y65.169 E.33877
G1 X104.895 Y65.744 E.01946
G1 X112.548 Y58.092 E.36632
G1 X113.123 Y58.092 E.01946
G1 X104.895 Y66.32 E.39387
G1 X104.895 Y66.896 E.0195
G1 X113.699 Y58.092 E.42144
G1 X114.275 Y58.092 E.0195
G1 X104.895 Y67.471 E.44899
G1 X104.895 Y68.047 E.0195
G1 X114.851 Y58.092 E.47656
G1 X115.426 Y58.092 E.01946
G1 X104.895 Y68.623 E.50411
G1 X104.895 Y69.198 E.01946
G1 X116.002 Y58.092 E.53166
G1 X116.578 Y58.092 E.0195
G1 X104.895 Y69.774 E.55923
G1 X104.895 Y70.35 E.0195
G1 X117.153 Y58.092 E.58678
G1 X117.729 Y58.092 E.0195
G1 X104.895 Y70.925 E.61433
G1 X104.895 Y71.501 E.0195
M73 P5 R42
G1 X118.305 Y58.092 E.6419
G1 X118.88 Y58.092 E.01946
M73 Q5 S43
G1 X104.895 Y72.077 E.66945
G1 X104.895 Y72.653 E.0195
G1 X119.456 Y58.092 E.69703
G1 X120.032 Y58.092 E.0195
G1 X104.895 Y73.228 E.72457
G1 X104.895 Y73.804 E.0195
G1 X120.607 Y58.092 E.75212
G1 X121.183 Y58.092 E.0195
G1 X104.895 Y74.38 E.7797
G1 X104.895 Y74.955 E.01946
G1 X121.759 Y58.092 E.80725
G1 X122.335 Y58.092 E.0195
G1 X104.895 Y75.531 E.83482
G1 X104.895 Y76.107 E.0195
G1 X122.91 Y58.092 E.86237
G1 X123.486 Y58.092 E.0195
G1 X104.895 Y76.682 E.88992
G1 X104.895 Y77.258 E.0195
G1 X124.062 Y58.092 E.91749
G1 X124.637 Y58.092 E.01946
G1 X104.895 Y77.834 E.94504
G1 X104.895 Y78.41 E.0195
G1 X125.213 Y58.092 E.97261
G1 X125.789 Y58.092 E.0195
G1 X104.895 Y78.985 E1.00016
G1 X104.895 Y79.561 E.0195
G1 X126.364 Y58.092 E1.02771
G1 X126.94 Y58.092 E.0195
G1 X104.895 Y80.137 E1.05528
G1 X104.895 Y80.712 E.01946
G1 X127.516 Y58.092 E1.08283
G1 X128.092 Y58.092 E.0195
G1 X104.895 Y81.288 E1.1104
G1 X104.895 Y81.864 E.0195
G1 X128.667 Y58.092 E1.13795
G1 X129.243 Y58.092 E.0195
G1 X104.895 Y82.439 E1.1655
G1 X104.895 Y83.015 E.0195
G1 X129.819 Y58.092 E1.19307
G1 X130.394 Y58.092 E.01946
G1 X104.895 Y83.591 E1.22062
G1 X104.895 Y84.167 E.0195
G1 X130.97 Y58.092 E1.24819
G1 X131.546 Y58.092 E.0195
G1 X104.895 Y84.742 E1.27574
G1 X104.895 Y85.318 E.0195
G1 X132.121 Y58.092 E1.30329
G1 X132.697 Y58.092 E.0195
G1 X104.895 Y85.894 E1.33086
G1 X104.895 Y86.469 E.01946
G1 X133.273 Y58.092 E1.35841
G1 X133.848 Y58.092 E.01946
G1 X104.895 Y87.045 E1.38596
G1 X104.895 Y87.621 E.0195
G1 X134.424 Y58.092 E1.41353
G1 X135 Y58.092 E.0195
G1 X104.895 Y88.196 E1.44108
G1 X104.895 Y88.772 E.0195
G1 X135.576 Y58.092 E1.46866
G1 X136.151 Y58.092 E.01946
G1 X104.895 Y89.348 E1.49621
G1 X104.895 Y89.923 E.01946
G1 X136.727 Y58.092 E1.52375
G1 X137.303 Y58.092 E.0195
G1 X104.895 Y90.499 E1.55133
G1 X104.895 Y91.075 E.0195
G1 X137.878 Y58.092 E1.57888
G1 X138.454 Y58.092 E.0195
G1 X104.895 Y91.651 E1.60645
G1 X104.822 Y92.198 E.01868
;WIDTH:0.38292
G1 X104.751 Y92.179 E.00208
G1 X104.77 Y92.25 E.00208
G1 X104.811 Y92.239 E.0012
;WIDTH:0.41646
G1 X104.919 Y92.167 E.00403
;WIDTH:0.449999
G1 X105.027 Y92.095 E.00439
G1 X138.898 Y58.223 E1.62141
G1 X138.97 Y58.115 E.00439
;WIDTH:0.41646
G1 X139.042 Y58.007 E.00403
;WIDTH:0.38292
G1 X139.001 Y58.018 E.0012
G1 X138.982 Y57.947 E.00208
G1 X139.053 Y57.966 E.00208
M204 P1250
G1 X139.053 Y57.966 F24000
G1 X138.898 Y58.799
M204 P1500
;WIDTH:0.449999
G1 F7200
G1 X105.602 Y92.095 E1.59386
G1 X106.178 Y92.095 E.0195
G1 X138.898 Y59.375 E1.56629
G1 X138.898 Y59.95 E.01946
G1 X106.754 Y92.095 E1.53874
G1 X107.329 Y92.095 E.01946
G1 X138.898 Y60.526 E1.51119
G1 X138.898 Y61.102 E.0195
G1 X107.905 Y92.095 E1.48362
G1 X108.481 Y92.095 E.0195
G1 X138.898 Y61.677 E1.45607
G1 X138.898 Y62.253 E.0195
G1 X109.057 Y92.095 E1.42849
G1 X109.632 Y92.095 E.01946
G1 X138.898 Y62.829 E1.40095
G1 X138.898 Y63.404 E.01946
G1 X110.208 Y92.095 E1.3734
G1 X110.784 Y92.095 E.0195
G1 X138.898 Y63.98 E1.34582
G1 X138.898 Y64.556 E.0195
G1 X111.359 Y92.095 E1.31827
G1 X111.935 Y92.095 E.0195
G1 X138.898 Y65.132 E1.2907
G1 X138.898 Y65.707 E.01946
G1 X112.511 Y92.095 E1.26315
G1 X113.086 Y92.095 E.01946
G1 X138.898 Y66.283 E1.2356
G1 X138.898 Y66.859 E.0195
G1 X113.662 Y92.095 E1.20803
G1 X114.238 Y92.095 E.0195
G1 X138.898 Y67.434 E1.18048
G1 X138.898 Y68.01 E.0195
G1 X114.813 Y92.095 E1.15293
G1 X115.389 Y92.095 E.0195
